X: 1
T: Green Banner, The
M: 4/4
L: 1/8
R: hornpipe
K: Gmaj
|:(3GFE|DGBG DG(3Bcd|e2ge dBAB|GFGA BABG|A2(3FGA GF(3EFG|
DGBG DG(3Bcd|e2ge dBAB|GBdg ecAF|G2 GF G2:|
|:(3def|gdeg dGBG|dG(3.g.f.e dBAB|GBdg edcB|A2AG A2dc|
BDGB dedB|cdef ga(3.g.f.e|(3.d.e.d Bd cAFA|G2 GF G2:|
